src/icons/verdaccio.svg

<svg
  width="24"
  height="24"
  viewBox="0 0 24 24"
  fill="none"
  xmlns="http://www.w3.org/2000/svg"
>
  <path
    fill-rule="evenodd"
    clip-rule="evenodd"
    d="M18.2 10.237H13.752L11.925 13.891L7.113 4.26699H2.665L10.625 20.187H13.225L18.2 10.237Z"
    fill="#00897B"
  />
  <path
    d="M14.845 3.81299V4.51299H16.612L16.196 5.33799H13.423V6.03799H15.843L15.297 7.12299H12.033V7.82299H15.559L19.325 7.83999L21.335 3.82199L20.235 3.81899V3.81299H14.845Z"
    fill="#00897B"
  />
</svg>

<svg viewBox="0 0 24 24" xmlns="http://www.w3.org/2000/svg">
  <path
    d="M18.2 10.237h-4.448l-1.827 3.654-4.812-9.624H2.665l7.96 15.92h2.6z"
    clip-rule="evenodd"
    fill="#00897b"
    fill-rule="evenodd"
  />
  <path
    d="M14.845 3.813v.7h1.767l-.416.825h-2.773v.7h2.42l-.546 1.085h-3.264v.7h3.526l3.766.017 2.01-4.018-1.1-.003v-.006z"
    fill="#e57373"
  />
</svg>
